X: 419
T: Od Yishoma #2
C: S.Carlebach
M: 2/4
L: 1/8
K: Am
| "Am"(A,E DE) | "Dm"F2 D2 | "Am"E4- | "E7"E3 E \
| "Am"(A,E) (DE) | "G7"F2 D2 | "C"E4- | "E7"E4 |
w: Od*** yi-sho-ma* b'-a-*rey* y'-hu-da
| "F"(Ac B)A | c2 A2 |  "Dm"z(c B)A | G2 F2 \
| "G7"zG FG | (A2 F2) | "C"E4- | "E7"E4 |
w: u-**v'-chu-tzot u-*v'-chu-tzot Y'-ru-sha-la-*yim.
|: "Am"Ac2 c | c2 (Bc) | "Dm"d2 c2 | "E7"(c2 B2)
w: ~ Kol sa-son v'-*kol sim-cha,*
| EB2 B | B2 (AB) | c2 B2 |1 "Am"(B2 A2) :|2 "Am"A4 |]
w: ~ kol cha-tan v'-*kol ka-la* \-la.
